flaticon/emoticons/scared-1.svg

<svg xmlns="http://www.w3.org/2000/svg" width="32" height="32" viewBox="0 0 24 24">
    <path d="M 23.917969 10.628906 C 23.757812 9.949219 23.371094 9.363281 22.886719 9.066406 C 22.5625 8.867188 22.214844 8.800781 21.882812 8.882812 C 21.808594 8.898438 21.734375 8.925781 21.664062 8.960938 C 20.730469 6.6875 19.273438 5.214844 17.773438 4.265625 L 18.316406 3.179688 C 18.417969 2.980469 18.335938 2.742188 18.136719 2.640625 C 17.941406 2.542969 17.699219 2.625 17.601562 2.820312 L 17.082031 3.863281 C 16.832031 3.730469 16.589844 3.613281 16.34375 3.507812 L 16.738281 2.328125 C 16.808594 2.117188 16.695312 1.890625 16.484375 1.820312 C 16.273438 1.75 16.050781 1.863281 15.980469 2.074219 L 15.601562 3.210938 C 15.324219 3.113281 15.054688 3.027344 14.796875 2.953125 L 15.140625 1.925781 C 15.207031 1.714844 15.09375 1.488281 14.886719 1.421875 C 14.675781 1.347656 14.449219 1.464844 14.378906 1.671875 L 14.015625 2.761719 C 13.511719 2.65625 13.078125 2.597656 12.757812 2.566406 L 12.757812 1.800781 C 12.757812 1.578125 12.582031 1.398438 12.359375 1.398438 C 12.136719 1.398438 11.960938 1.578125 11.960938 1.800781 L 11.960938 2.539062 C 11.75 2.546875 11.382812 2.574219 10.90625 2.648438 L 10.753906 1.734375 C 10.71875 1.515625 10.511719 1.367188 10.292969 1.40625 C 10.074219 1.441406 9.929688 1.648438 9.964844 1.863281 L 10.121094 2.800781 C 9.691406 2.898438 9.21875 3.03125 8.71875 3.207031 L 8.339844 2.074219 C 8.269531 1.863281 8.042969 1.75 7.832031 1.820312 C 7.625 1.890625 7.511719 2.117188 7.582031 2.324219 L 7.972656 3.503906 C 7.628906 3.652344 7.277344 3.832031 6.925781 4.035156 L 6.316406 2.820312 C 6.21875 2.621094 5.976562 2.542969 5.78125 2.640625 C 5.582031 2.738281 5.503906 2.980469 5.601562 3.179688 L 6.242188 4.457031 C 5.890625 4.699219 5.542969 4.972656 5.203125 5.277344 L 4.242188 4.316406 C 4.085938 4.160156 3.832031 4.160156 3.675781 4.316406 C 3.519531 4.472656 3.519531 4.726562 3.675781 4.882812 L 4.632812 5.835938 C 3.402344 7.144531 2.375 8.972656 1.902344 11.523438 C 1.894531 11.554688 1.890625 11.589844 1.886719 11.621094 C 1.785156 11.59375 1.679688 11.574219 1.574219 11.574219 C 0.691406 11.574219 0 12.527344 0 13.746094 C 0 14.960938 0.691406 15.914062 1.574219 15.914062 C 1.738281 15.914062 1.894531 15.875 2.046875 15.808594 C 2.328125 16.875 2.792969 17.878906 3.429688 18.757812 C 4.707031 20.519531 7.214844 22.601562 11.9375 22.601562 C 12.007812 22.601562 12.082031 22.601562 12.15625 22.597656 C 12.230469 22.601562 12.304688 22.601562 12.375 22.601562 C 17.09375 22.601562 19.605469 20.519531 20.882812 18.757812 C 22.035156 17.171875 22.621094 15.179688 22.574219 13.128906 C 22.589844 13.128906 22.601562 13.132812 22.617188 13.132812 C 22.707031 13.132812 22.796875 13.125 22.886719 13.101562 C 23.746094 12.898438 24.199219 11.808594 23.917969 10.628906 Z M 1.871094 14.996094 C 1.789062 15.0625 1.6875 15.113281 1.574219 15.113281 C 1.207031 15.113281 0.800781 14.550781 0.800781 13.746094 C 0.800781 12.9375 1.207031 12.375 1.574219 12.375 C 1.640625 12.375 1.710938 12.394531 1.777344 12.429688 C 1.757812 12.644531 1.746094 12.855469 1.738281 13.066406 C 1.738281 13.082031 1.738281 13.101562 1.738281 13.121094 C 1.734375 13.292969 1.734375 13.464844 1.738281 13.632812 C 1.742188 13.695312 1.742188 13.753906 1.746094 13.8125 C 1.753906 13.949219 1.761719 14.085938 1.773438 14.21875 C 1.78125 14.28125 1.78125 14.347656 1.789062 14.410156 C 1.808594 14.582031 1.832031 14.753906 1.859375 14.925781 C 1.863281 14.949219 1.867188 14.972656 1.871094 14.996094 Z M 20.234375 18.289062 C 18.507812 20.667969 15.785156 21.851562 12.160156 21.800781 L 12.152344 21.800781 C 8.527344 21.859375 5.804688 20.667969 4.078125 18.289062 C 3.253906 17.152344 2.746094 15.785156 2.585938 14.34375 C 2.582031 14.3125 2.582031 14.28125 2.582031 14.25 C 2.558594 14.023438 2.546875 13.792969 2.539062 13.558594 C 2.539062 13.460938 2.539062 13.359375 2.542969 13.257812 C 2.542969 13.09375 2.550781 12.933594 2.558594 12.769531 C 2.566406 12.652344 2.574219 12.53125 2.589844 12.414062 C 2.613281 12.164062 2.644531 11.917969 2.6875 11.667969 C 3.128906 9.296875 4.0625 7.601562 5.183594 6.386719 L 5.675781 6.882812 C 5.753906 6.960938 5.859375 7 5.960938 7 C 6.0625 7 6.164062 6.960938 6.242188 6.882812 C 6.398438 6.726562 6.398438 6.472656 6.242188 6.316406 L 5.75 5.824219 C 6.023438 5.578125 6.304688 5.351562 6.589844 5.152344 L 6.800781 5.578125 C 6.871094 5.71875 7.011719 5.800781 7.160156 5.800781 C 7.21875 5.800781 7.28125 5.785156 7.339844 5.757812 C 7.535156 5.660156 7.617188 5.417969 7.519531 5.222656 L 7.265625 4.71875 C 7.585938 4.535156 7.902344 4.371094 8.214844 4.230469 L 8.378906 4.726562 C 8.4375 4.894531 8.59375 5 8.757812 5 C 8.800781 5 8.84375 4.992188 8.886719 4.980469 C 9.09375 4.910156 9.207031 4.683594 9.140625 4.472656 L 8.957031 3.933594 C 9.417969 3.769531 9.851562 3.652344 10.25 3.566406 L 10.363281 4.265625 C 10.398438 4.460938 10.566406 4.601562 10.757812 4.601562 C 10.78125 4.601562 10.800781 4.597656 10.824219 4.59375 C 11.042969 4.558594 11.191406 4.351562 11.152344 4.136719 L 11.035156 3.425781 C 11.445312 3.367188 11.765625 3.34375 11.960938 3.335938 L 11.960938 4.199219 C 11.960938 4.421875 12.136719 4.601562 12.359375 4.601562 C 12.582031 4.601562 12.757812 4.421875 12.757812 4.199219 L 12.757812 3.367188 C 13.027344 3.394531 13.367188 3.441406 13.765625 3.515625 L 13.578125 4.074219 C 13.511719 4.28125 13.625 4.507812 13.832031 4.578125 C 13.875 4.59375 13.917969 4.601562 13.960938 4.601562 C 14.125 4.601562 14.28125 4.492188 14.339844 4.328125 L 14.546875 3.699219 C 14.804688 3.769531 15.074219 3.855469 15.351562 3.953125 L 15.179688 4.472656 C 15.109375 4.683594 15.222656 4.910156 15.433594 4.980469 C 15.476562 4.992188 15.515625 5 15.558594 5 C 15.726562 5 15.882812 4.894531 15.9375 4.726562 L 16.097656 4.253906 C 16.167969 4.285156 16.238281 4.3125 16.308594 4.347656 C 16.453125 4.414062 16.59375 4.488281 16.730469 4.5625 L 16.402344 5.21875 C 16.300781 5.417969 16.382812 5.660156 16.578125 5.757812 C 16.636719 5.785156 16.699219 5.800781 16.757812 5.800781 C 16.90625 5.800781 17.046875 5.71875 17.117188 5.578125 L 17.421875 4.96875 C 19.089844 6.042969 20.300781 7.574219 21.039062 9.539062 L 21.035156 9.539062 L 21.109375 9.746094 C 21.21875 10.054688 21.3125 10.359375 21.398438 10.671875 C 21.402344 10.691406 21.40625 10.707031 21.410156 10.726562 C 21.492188 11.035156 21.5625 11.34375 21.625 11.664062 C 21.625 11.664062 21.625 11.667969 21.625 11.667969 C 21.671875 11.933594 21.707031 12.195312 21.730469 12.460938 C 21.738281 12.511719 21.742188 12.558594 21.746094 12.609375 C 21.914062 14.675781 21.386719 16.703125 20.234375 18.289062 Z M 22.699219 12.324219 C 22.644531 12.335938 22.585938 12.335938 22.523438 12.324219 C 22.523438 12.308594 22.519531 12.296875 22.519531 12.28125 C 22.492188 12.03125 22.457031 11.78125 22.414062 11.527344 C 22.410156 11.527344 22.410156 11.523438 22.410156 11.523438 C 22.410156 11.511719 22.40625 11.503906 22.40625 11.492188 C 22.347656 11.195312 22.285156 10.910156 22.214844 10.632812 C 22.207031 10.597656 22.195312 10.566406 22.1875 10.535156 C 22.117188 10.257812 22.035156 9.992188 21.949219 9.734375 C 21.949219 9.726562 21.949219 9.722656 21.945312 9.71875 C 21.984375 9.6875 22.027344 9.671875 22.070312 9.660156 C 22.222656 9.625 22.371094 9.6875 22.46875 9.746094 C 22.769531 9.933594 23.027344 10.339844 23.140625 10.8125 C 23.324219 11.597656 23.058594 12.238281 22.699219 12.324219 Z M 22.699219 12.324219"/>
    <path d="M 9.199219 14.597656 C 10.179688 14.597656 11.042969 14.089844 11.542969 13.324219 C 12.121094 14.546875 13.359375 15.398438 14.800781 15.398438 C 16.785156 15.398438 18.398438 13.785156 18.398438 11.800781 C 18.398438 9.8125 16.785156 8.199219 14.800781 8.199219 C 13.359375 8.199219 12.121094 9.050781 11.542969 10.273438 C 11.042969 9.507812 10.179688 9 9.199219 9 C 7.65625 9 6.398438 10.253906 6.398438 11.800781 C 6.398438 13.34375 7.65625 14.597656 9.199219 14.597656 Z M 14.800781 9 C 16.34375 9 17.597656 10.253906 17.597656 11.800781 C 17.597656 13.34375 16.34375 14.597656 14.800781 14.597656 C 13.257812 14.597656 12 13.34375 12 11.800781 C 12 10.253906 13.257812 9 14.800781 9 Z M 9.199219 9.800781 C 10.300781 9.800781 11.199219 10.695312 11.199219 11.800781 C 11.199219 12.902344 10.300781 13.800781 9.199219 13.800781 C 8.097656 13.800781 7.199219 12.902344 7.199219 11.800781 C 7.199219 10.695312 8.097656 9.800781 9.199219 9.800781 Z M 9.199219 9.800781"/>
    <path d="M10 11.800781C10 12.242188 9.640625 12.597656 9.199219 12.597656 8.757812 12.597656 8.398438 12.242188 8.398438 11.800781 8.398438 11.359375 8.757812 11 9.199219 11 9.640625 11 10 11.359375 10 11.800781zM16 11.800781C16 12.460938 15.460938 13 14.800781 13 14.136719 13 13.597656 12.460938 13.597656 11.800781 13.597656 11.136719 14.136719 10.601562 14.800781 10.601562 15.460938 10.601562 16 11.136719 16 11.800781zM18.117188 17.8125C17.644531 18.28125 16.753906 18.28125 16.28125 17.8125 15.507812 17.035156 14.09375 17.035156 13.316406 17.8125 12.84375 18.28125 11.953125 18.28125 11.480469 17.8125 10.707031 17.035156 9.292969 17.035156 8.515625 17.8125 8.027344 18.300781 7.136719 18.335938 6.683594 17.878906 6.527344 17.722656 6.273438 17.722656 6.117188 17.878906 5.960938 18.035156 5.960938 18.289062 6.117188 18.445312 6.484375 18.8125 7.003906 18.996094 7.53125 18.996094 8.097656 18.996094 8.671875 18.789062 9.082031 18.378906 9.554688 17.90625 10.445312 17.90625 10.917969 18.378906 11.289062 18.75 11.828125 18.964844 12.398438 18.964844 12.96875 18.964844 13.507812 18.75 13.882812 18.378906 14.355469 17.90625 15.246094 17.90625 15.714844 18.378906 16.089844 18.75 16.628906 18.964844 17.199219 18.964844 17.769531 18.964844 18.308594 18.75 18.683594 18.378906 18.839844 18.222656 18.839844 17.96875 18.683594 17.8125 18.527344 17.65625 18.273438 17.65625 18.117188 17.8125zM6.621094 8.304688C7.023438 8.503906 7.449219 8.597656 7.867188 8.597656 8.894531 8.597656 9.886719 8.03125 10.378906 7.050781 10.476562 6.851562 10.394531 6.613281 10.199219 6.515625 10 6.414062 9.761719 6.496094 9.660156 6.691406 9.167969 7.679688 7.964844 8.082031 6.980469 7.585938 6.78125 7.488281 6.539062 7.566406 6.441406 7.765625 6.34375 7.964844 6.421875 8.203125 6.621094 8.304688zM18.640625 7.316406C18.160156 7.554688 17.621094 7.59375 17.113281 7.421875 16.609375 7.253906 16.195312 6.898438 15.957031 6.421875 15.859375 6.222656 15.617188 6.144531 15.421875 6.242188 15.222656 6.339844 15.144531 6.582031 15.242188 6.777344 15.578125 7.449219 16.152344 7.945312 16.859375 8.183594 17.152344 8.28125 17.449219 8.328125 17.75 8.328125 18.175781 8.328125 18.605469 8.226562 19 8.03125 19.195312 7.933594 19.277344 7.691406 19.175781 7.492188 19.078125 7.296875 18.835938 7.21875 18.640625 7.316406zM18.640625 7.316406"/>
</svg>

<svg xmlns="http://www.w3.org/2000/svg" width="32" height="32" viewBox="0 0 24 24">
    <path d="M23.918 10.629c-.16-.68-.547-1.266-1.031-1.563-.325-.199-.672-.265-1.004-.183a.916.916 0 0 0-.219.078c-.934-2.274-2.39-3.746-3.89-4.695l.542-1.086a.4.4 0 1 0-.714-.36l-.52 1.043a9.758 9.758 0 0 0-.738-.355l.394-1.18a.4.4 0 0 0-.254-.508.396.396 0 0 0-.504.254l-.378 1.137a14.542 14.542 0 0 0-.805-.258l.344-1.027a.401.401 0 0 0-.762-.254l-.363 1.09a11.811 11.811 0 0 0-1.258-.196v-.765a.398.398 0 1 0-.797 0v.738c-.211.008-.578.035-1.055.11l-.152-.915a.396.396 0 0 0-.461-.328.398.398 0 0 0-.328.457l.156.938c-.43.097-.902.23-1.402.406l-.38-1.133a.4.4 0 0 0-.758.25l.392 1.18a10.16 10.16 0 0 0-1.047.531l-.61-1.215a.399.399 0 0 0-.535-.18.402.402 0 0 0-.18.54l.641 1.277c-.351.242-.699.516-1.039.82l-.96-.96a.4.4 0 0 0-.567.566l.957.953c-1.23 1.309-2.258 3.137-2.73 5.687-.008.032-.012.067-.016.098a1.21 1.21 0 0 0-.313-.047c-.883 0-1.574.953-1.574 2.172 0 1.215.691 2.168 1.574 2.168.164 0 .32-.039.473-.105a8.885 8.885 0 0 0 1.383 2.949c1.277 1.762 3.785 3.844 8.508 3.844.07 0 .144 0 .218-.004.074.004.149.004.219.004 4.719 0 7.23-2.082 8.508-3.844 1.152-1.586 1.738-3.578 1.691-5.63.016 0 .028.005.043.005.09 0 .18-.008.27-.031.86-.204 1.312-1.293 1.031-2.473zM1.871 14.996a.477.477 0 0 1-.297.117c-.367 0-.773-.562-.773-1.367 0-.809.406-1.371.773-1.371a.44.44 0 0 1 .203.055c-.02.215-.03.425-.039.636v.055c-.004.172-.004.344 0 .512.004.062.004.12.008.18.008.136.016.273.027.406.008.062.008.129.016.191.02.172.043.344.07.516l.012.07zm18.363 3.293c-1.726 2.379-4.449 3.563-8.074 3.512h-.008c-3.625.058-6.347-1.133-8.074-3.512-.824-1.137-1.332-2.504-1.492-3.945-.004-.031-.004-.063-.004-.094a9.951 9.951 0 0 1-.043-.691c0-.098 0-.2.004-.301 0-.164.008-.324.016-.488.007-.118.015-.239.03-.356.024-.25.056-.496.099-.746.44-2.371 1.374-4.066 2.496-5.281l.492.496A.405.405 0 0 0 5.96 7a.4.4 0 0 0 .281-.684l-.492-.492c.273-.246.555-.472.84-.672l.21.426a.4.4 0 0 0 .72-.355l-.254-.504c.32-.184.636-.348.949-.489l.164.497a.405.405 0 0 0 .508.253.407.407 0 0 0 .254-.507l-.184-.54c.461-.163.895-.28 1.293-.367l.113.7a.405.405 0 0 0 .395.336c.023 0 .043-.004.066-.008a.395.395 0 0 0 .328-.457l-.117-.711c.41-.059.73-.082.926-.09v.863a.398.398 0 1 0 .797 0v-.832c.27.028.61.074 1.008.149l-.188.558a.404.404 0 0 0 .383.528.41.41 0 0 0 .379-.274l.207-.629c.258.07.527.156.805.254l-.172.52a.4.4 0 0 0 .379.527.397.397 0 0 0 .379-.273l.16-.473c.07.031.14.059.21.094.145.066.286.14.422.215l-.328.656a.4.4 0 1 0 .715.36l.305-.61c1.668 1.074 2.879 2.605 3.617 4.57h-.004l.074.207c.11.309.203.613.29.926l.011.055c.082.308.152.617.215.937v.004c.047.266.082.527.105.793.008.05.012.098.016.148.168 2.067-.36 4.094-1.512 5.68zm2.465-5.965a.443.443 0 0 1-.176 0c0-.015-.003-.027-.003-.043-.028-.25-.063-.5-.106-.754-.004 0-.004-.004-.004-.004 0-.011-.004-.02-.004-.03a16.474 16.474 0 0 0-.191-.86c-.008-.035-.02-.067-.027-.098-.07-.277-.153-.543-.239-.8 0-.008 0-.012-.004-.016a.332.332 0 0 1 .125-.059c.153-.035.301.027.399.086.3.188.558.594.672 1.066.183.786-.082 1.426-.442 1.512zm0 0"/>
    <path d="M9.2 14.598c.98 0 1.843-.508 2.343-1.274a3.605 3.605 0 0 0 3.258 2.074 3.6 3.6 0 0 0 3.597-3.597 3.602 3.602 0 0 0-3.597-3.602c-1.442 0-2.68.852-3.258 2.074a2.797 2.797 0 0 0-5.145 1.528A2.802 2.802 0 0 0 9.2 14.598zM14.8 9a2.8 2.8 0 0 1 0 5.598A2.802 2.802 0 0 1 12 11.8C12 10.254 13.258 9 14.8 9zm-5.6.8c1.1 0 2 .895 2 2 0 1.102-.9 2-2 2-1.102 0-2-.898-2-2 0-1.105.898-2 2-2zm0 0"/>
    <path d="M10 11.8c0 .442-.36.798-.8.798A.799.799 0 1 1 9.2 11c.44 0 .8.36.8.8zm0 0M16 11.8a1.202 1.202 0 0 1-2.402 0 1.2 1.2 0 0 1 2.402 0zm0 0M18.117 17.813c-.472.468-1.363.468-1.836 0-.773-.778-2.187-.778-2.965 0-.472.468-1.363.468-1.836 0-.773-.778-2.187-.778-2.964 0-.489.488-1.38.523-1.832.066a.4.4 0 0 0-.567.566c.367.367.887.551 1.414.551.567 0 1.14-.207 1.551-.617.473-.473 1.363-.473 1.836 0 .371.371.91.586 1.48.586s1.11-.215 1.485-.586c.472-.473 1.363-.473 1.832 0 .375.371.914.586 1.484.586s1.11-.215 1.485-.586a.4.4 0 0 0-.567-.567zm0 0M6.621 8.305A2.809 2.809 0 0 0 10.38 7.05a.401.401 0 1 0-.719-.36 1.994 1.994 0 0 1-2.68.895.402.402 0 0 0-.359.719zm0 0M18.64 7.316c-.48.239-1.019.278-1.527.106a1.99 1.99 0 0 1-1.156-1 .398.398 0 1 0-.715.355 2.79 2.79 0 0 0 2.508 1.551c.426 0 .855-.101 1.25-.297a.4.4 0 0 0-.36-.715zm0 0"/>
</svg>
